X: 3316
T: Bellamy's
R: jig
M: 6/8
K: Dmixolydian
|:DFA dcB|cAF AGE|DFA dcA|cAF gfg:|
fed eae|fed cBc|DEF Acd|def a3|
fed eae|fed cBc|DEF A^cd|fed d3||

